X:1
T: Field of Oats
C:
R:Reel
Q: 232
K:Em
M:4/4
L:1/8
BA|GE EF G2 EF|G2 FG Ac BA|GE EF G2 ef|gf ed B2 BA|
GE EF G2 EF|G2 FG Ac BA|GF EF GA Ba|ge fd e2 ef|
|:g2 bg f2 af|e2 fe Bd ef|ga bg fg af|gf ed e2 ef|
g2 bg f2 af|e2 fe Bd ef|ga bg f2 af|1gf ed ed ef:|2gf ed ed BA|
GE EF G2 EF|G2 FG Ac BA|GE EF G2 ef|gf ed B2 BA|
GE EF G2 EF|G2 FG Ac BA|GF EF GA Ba|ge fd e2||
